X:1
T:Michigan, 11.11.11 D
T:Michigan, 11.11.11 D
T:John Harrison Tenney, 1878
T:Public Domain Courtesy of the Cyber Hymnal™
C:John Harrison Tenney, 1878
Z:Public Domain
Z:Courtesy of the Cyber Hymnal™
%%score ( 1 2 ) ( 3 4 )
L:1/8
Q:1/4=107
M:6/8
K:A
V:1 treble 
V:2 treble 
V:3 bass 
V:4 bass 
V:1
 [Ec]3 [FB][FA][DF] | [CE]3 [CA]3 | [EB]3 [EB][EA][DB] | [Ec]6 | [Ec]3 [Ed][Ec][EB] | [Ec]3 [EA]3 | %6
 [EG]3 [FA][EG][^DF] | E6 | [Ec]3 [FB][FA][DF] | [CE]3 [CA]3 | [CA]3 [CA][CG][CA] | [EB]6 | %12
 [Ec]3 [Ec][Fd][=Ge] | [Fd]3 [DF]3 | [CE]3 [B,G][CA][DB] | [CA]6 | [Ec]3 [Ec][Fd][Ec] | %17
 [EB]3 [Ee]3 | [CA]3 [Ed][Ed][Ec] | [EB]6 | A3 [^EG][EG][EG] | F3 [FB]3 | [EA]3 [DG][DF][DG] | %23
 [CA]6 |] %24
V:2
 x6 | x6 | x6 | x6 | x6 | x6 | x6 | E6 | x6 | x6 | x6 | x6 | x6 | x6 | x6 | x6 | x6 | x6 | x6 | %19
 x6 | (C2 F) x3 | F3 x3 | x6 | x6 |] %24
V:3
 [A,,A,]3 [D,A,][D,A,][D,A,] | [A,,A,]3 [A,,A,]3 | [E,G,]3 [E,G,][E,F,][E,G,] | [A,,A,]6 | %4
 [A,,A,]3 [E,B,][E,A,][E,G,] | [A,,A,]3 [A,,C]3 | [B,,B,]3 [B,,B,][B,,B,][B,,A,] | [E,G,]6 | %8
 [A,,A,]3 [D,A,][D,A,][D,A,] | [A,,A,]3 [A,,A,]3 | [F,A,]3 [F,A,][F,B,][F,A,] | [E,G,]6 | %12
 [A,,A,]3 [A,,A,][A,,A,][A,,A,] | [D,A,]3 [D,A,]3 | [E,A,]3 E,E,E, | [A,,E,]6 | A,3 A,A,A, | %17
 [E,G,]3 [E,G,]3 | [F,A,]3 [G,B,][G,B,]A, | [E,G,]6 | (A,2 C) [C,C][C,C][C,B,] | [D,A,]3 [D,D]3 | %22
 [E,C]3 [E,B,][E,A,][E,B,] | [A,,A,]6 |] %24
V:4
 x6 | x6 | x6 | x6 | x6 | x6 | x6 | x6 | x6 | x6 | x6 | x6 | x6 | x6 | x3 E,E,E, | x6 | %16
 A,3 A,A,A, | x6 | x5 A, | x6 | F,3 x3 | x6 | x6 | x6 |] %24

